X:5879
T:Scottish du Stockfish 1 (D. Thonon)
O:england
C:Thonon
M:2/4
L:1/16
K:Am
ABcd|e2ef edce|d2>d2 e2e2|\
A2A2 Bcdc|B4 ABcd|e2ef edce|
d2>d2 e2e2|A2Ac BAG2|1 A4:|2 A2>e2 e2e2\
|:g2>e2 d2c2|d2>d2 e2e2|A2A2 Bcdc|
B2>e2 e2e2|g2>e2 d2c2|d2>d2 e2e2|\
A2Ac BAG2|1 A2>e2 e2e2:|2 A4 |]


